src/icon/ui/ok-filled/icon_ok-filled_l_white.svg

<svg width="30px" height="30px" viewBox="0 0 30 30" version="1.1" xmlns="http://www.w3.org/2000/svg"><path d="M15,0 C23.2842712,-1.52179594e-15 30,6.71572875 30,15 C30,23.2842712 23.2842712,30 15,30 C6.71572875,30 1.01453063e-15,23.2842712 0,15 C-1.01453063e-15,6.71572875 6.71572875,1.52179594e-15 15,0 Z M12.2954545,18.5031478 L8.29699862,14.7338654 L7.18181818,15.6590909 L12.2954545,20.7727273 L22.1590909,10.9090909 L20.92289,9.85838596 L12.2954545,18.5031478 Z" fill="#FFFFFF" fill-rule="nonzero" stroke="none" stroke-width="1"/></svg>

<svg width="30" height="30" viewBox="0 0 30 30" xmlns="http://www.w3.org/2000/svg"><path d="M15 0c8.284 0 15 6.716 15 15 0 8.284-6.716 15-15 15-8.284 0-15-6.716-15-15C0 6.716 6.716 0 15 0zm-2.705 18.503l-3.998-3.77-1.115.926 5.113 5.114 9.864-9.864-1.236-1.05-8.628 8.644z" fill="#FFF" fill-rule="nonzero"/></svg>
